!!!COM:	Compere, Loyset
!!!CDT:	~1445///-1518/08/16
!!!OTL:	Scaramella fa la galla
!!!AGN:	Song; Chanson
!!!SCT:	Com3052
!!!SCA:	Com3052
!!!voices:	4
**kern	**kern	**kern	**kern
*staff4	*staff3	*staff2	*staff1
*Ivox	*Ivox	*Ivox	*Ivox
*I"Bassus	*I"Tenor	*I"Altus	*I"Superius
*I'B	*I'T	*I'A	*I'S
*clefF4	*clefGv2	*clefGv2	*clefG2
*k[]	*k[]	*k[]	*k[]
*M2/1	*M2/1	*M2/1	*M2/1
*met(C|)	*met(C|)	*met(C|)	*met(C|)
=1-	=1-	=1-	=1-
2F	0r	0r	0r
2G	.	.	.
1A	.	.	.
=2	=2	=2	=2
2A	0r	0r	1r
1A	.	.	.
.	.	.	2f
2G	.	.	2g
=3	=3	=3	=3
2.F	0r	0r	1a
4E	.	.	.
2D	.	.	2a
[2A	.	.	[2a
=4	=4	=4	=4
2A]	1F	0r	2a]
4G	.	.	2a
4F	.	.	.
1E	1G	.	2.g
.	.	.	8fL
.	.	.	8eJ
=5	=5	=5	=5
2r	0A	1r	1e
1AA	.	.	.
.	.	2c	2r
2D	.	2d	[2a
=6	=6	=6	=6
2C	1A	1e	4a]
.	.	.	4b
2AA	.	.	2.cc
2r	[1A	2e	.
.	.	.	4b
[2AA	.	[2e	4a
.	.	.	4g
=7	=7	=7	=7
4AA]	1A]	2e]	2a
4BB	.	.	.
2C	.	2e	1g
1D	1A	2.d	.
.	.	.	2f#i
.	.	4c	.
=8	=8	=8	=8
0GG	1.G	1B	0g
.	.	2d	.
.	4F	2d	.
.	4E	.	.
=9	=9	=9	=9
2r	0E	1.c	1r
2.C	.	.	.
.	.	.	2g
4D	.	.	.
2E	.	2B	2g
=10	=10	=10	=10
2F	0r	2.A	1f
4E	.	.	.
4D	.	4B	.
2C	.	2c	2e
[2G	.	[2d	[2d
=11	=11	=11	=11
2G]	0r	4d]	2d]
.	.	4c	.
4F	.	1c	2e
4E	.	.	.
1D	.	.	1f
.	.	2B	.
=12	=12	=12	=12
1C	1G	0c	1e
2C	1G	.	4e
.	.	.	4d
2C	.	.	4c
.	.	.	4B
=13	=13	=13	=13
2D	0F	0A	2A
2D	.	.	2.f
2D	.	.	.
.	.	.	4e
2D	.	.	[2d
=14	=14	=14	=14
1AA	1E	2r	2d]
.	.	1A	2c#i
[1BB-	[1D	.	[1d
.	.	4G	.
.	.	4F	.
=15	=15	=15	=15
1BB-]	1D]	1G	1d]
1AA	1E	1A	1r
=16	=16	=16	=16
1r	1F	2d	0r
.	.	2d	.
1AA	1E	1c	.
=17	=17	=17	=17
2GG	0r	2B	2.d
1D	.	1A	.
.	.	.	4e
.	.	.	2f
4C	.	2B	2g
4BB	.	.	.
=18	=18	=18	=18
1AA	1F	1c	1a
1GG	[1G	1B	1d
=19	=19	=19	=19
1C	2G]	1r	0e
.	2G	.	.
2.E	1G	1c	.
4E	.	.	.
=20	=20	=20	=20
0D	0F	2.d	1r
.	.	4d	.
.	.	1d	1f
=21	=21	=21	=21
1r	1E	2B	2.g
.	.	2c	.
.	.	.	4g
1GG	[1D	1d	1g
=22	=22	=22	=22
2.BB	1D]	1d	2r
.	.	.	1f
4BB	.	.	.
1AA	1E	2.c	.
.	.	.	2e
.	.	4B	.
=23	=23	=23	=23
2D	1F	2A	1d
2D	.	2B	.
2C	1E	1c	1e
2C	.	.	.
=24	=24	=24	=24
1D	0r	2A	1f
.	.	2B	.
1AA	.	2.c	2e
.	.	.	2f
.	.	4c	.
=25	=25	=25	=25
2r	0r	1c	2.g
2C	.	.	.
.	.	.	4g
2.E	.	2B	1g
.	.	2G	.
4E	.	.	.
=26	=26	=26	=26
1D	1F	2A	2f
.	.	2B	2f
2C	[1G	2c	2e
2BB	.	2d	2d
=27	=27	=27	=27
1.C	2G]	0c	1e
.	2G	.	.
.	1G	.	4e
.	.	.	4d
2C	.	.	4c
.	.	.	4B
=28	=28	=28	=28
1D	1.F	1A	2A
.	.	.	1d
1AA	.	2r	.
.	2E	[2A	2c
=29	=29	=29	=29
2r	2D	4A]	2f
.	.	4B	.
2AA	2C	2c	2e
2BB-i	1D	2F	[1d
2BB-i	.	2G	.
=30	=30	=30	=30
0AA	0E	0A	2d]
.	.	.	4c#i
.	.	.	4B
.	.	.	1c#i
=31	=31	=31	=31
*M3/1	*M3/1	*M3/1	*M3/1
*met(O/3)	*met(O/3)	*met(O/3)	*met(O/3)
0D	1D	1.A	1d
.	1F	.	1d
.	.	2B	.
1E	1G	1c	1c
=32	=32	=32	=32
0D	0A	0d	0f
1D	1A	1d	1f
=33	=33	=33	=33
1.D	0A	0d	0f
2E	.	.	.
1F	1A	1c	1f
=34	=34	=34	=34
0C	1.G	0c	0e
.	4F	.	.
.	4E	.	.
1C	[1E	1c	1g
=35	=35	=35	=35
0C	1E]	0c	0g
.	1G	.	.
1C	1G	1c	1e
=36	=36	=36	=36
0D	0F	0A	1d
.	.	.	0a
1AA	1E	1c	.
=37	=37	=37	=37
0D	0D	1d	0f
.	.	1B	.
1C	1E	1c	1e
=38	=38	=38	=38
1D	1F	0A	1d
1AA	1E	.	1c
1D	1F	1A	1d
=39	=39	=39	=39
1.C	1.G	1.c	1.e
2C	2G	2c	2e
1C	1G	1c	1e
=40	=40	=40	=40
0D	0F	0A	0a
1E	1E	1c	1g
=41	=41	=41	=41
0F	0D	1d	0f
.	.	1d	.
1C	1E	1c	1e
=42	=42	=42	=42
1D	1F	0A	1d
1AA	1E	.	1c
1D	1F	1A	1d
=43	=43	=43	=43
1.C	1.G	1.c	1.e
2C	2G	2c	2e
1C	1G	1c	1e
=44	=44	=44	=44
0FF	0F	0c	0a
1C	1E	1c	1g
=45	=45	=45	=45
1D	1D	1A	1f
1AA	1C	1A	1.e
[1BB-i	[1D	1F	.
.	.	.	2d
=46	=46	=46	=46
1BB-]	1D]	1G	0d
0AA	0E	0A	.
.	.	.	1c#i
=47	=47	=47	=47
0.Dl	0.Dl	0.Al	0.dl
==	==	==	==
*-	*-	*-	*-
!!!RDF**kern: l=long note in original notation
!!!RDF**kern: i=editorial accidental
!!!ENC:	Megan K. Eagen 2013/11/28
!!!END:	2013/11/28/
!!!EED:	Jesse Rodin
!!!EEV:	2014/02/23/
!!!ONB:	Translated from MusicXML and edited on 2014/02/23/ by Craig Sapp
!!muse2ps: C^@{COM}^i2I150v85,85,85,150Q16
